Sources/FrostedUI/Resources/Icons.xcassets/rewardDiamond16.imageset/reward-diamond-16.svg

<svg width="16" height="16" viewBox="0 0 16 16" fill="none" xmlns="http://www.w3.org/2000/svg" data-fui-icon="true">
  <path
    d="M10.176 1.76501C10.9398 1.76505 11.6618 2.11441 12.136 2.71326L14.4631 5.65173C15.2242 6.613 15.1757 7.98473 14.3489 8.89001L9.84692 13.8177C8.85569 14.9027 7.14681 14.9026 6.15552 13.8177L1.65356 8.89001C0.826541 7.98473 0.778148 6.61306 1.53931 5.65173L3.86646 2.71326C4.34063 2.11441 5.06256 1.76501 5.82642 1.76501H10.176ZM5.82642 3.26501C5.52096 3.26501 5.23191 3.40451 5.04224 3.64392L2.71509 6.58337C2.41084 6.96789 2.43027 7.51626 2.76099 7.8783L7.26294 12.806C7.65947 13.2399 8.34304 13.24 8.7395 12.806L13.2415 7.8783C13.5721 7.51618 13.5908 6.96784 13.2864 6.58337L10.9602 3.64392C10.7706 3.40444 10.4815 3.26505 10.176 3.26501H5.82642ZM7.51196 4.8031C7.62306 4.27323 8.37939 4.27323 8.49048 4.8031L8.73364 5.96521C8.79453 6.25562 9.02158 6.48334 9.31177 6.54529L10.4875 6.79626C11.0145 6.90916 11.0146 7.66098 10.4875 7.7738L9.31177 8.02478C9.02169 8.08671 8.79464 8.31363 8.73364 8.60388L8.49048 9.76697C8.37922 10.2965 7.62329 10.2964 7.51196 9.76697L7.26782 8.60388C7.2068 8.31375 6.98063 8.08675 6.69067 8.02478L5.51489 7.7738C4.98742 7.6612 4.98744 6.90889 5.51489 6.79626L6.69067 6.54529C6.98082 6.48331 7.20694 6.2556 7.26782 5.96521L7.51196 4.8031Z"
    fill="currentColor"
  />
</svg>

<svg xmlns="http://www.w3.org/2000/svg" width="16" height="16" fill="none" data-fui-icon="true" viewBox="0 0 16 16"><path fill="currentColor" d="M10.176 1.765a2.5 2.5 0 0 1 1.96.948l2.327 2.939a2.5 2.5 0 0 1-.114 3.238l-4.502 4.928a2.5 2.5 0 0 1-3.691 0L1.654 8.89a2.5 2.5 0 0 1-.115-3.238l2.327-2.939a2.5 2.5 0 0 1 1.96-.948zm-4.35 1.5a1 1 0 0 0-.784.379l-2.327 2.94a1 1 0 0 0 .046 1.294l4.502 4.928a1 1 0 0 0 1.476 0l4.502-4.928a1 1 0 0 0 .045-1.295l-2.326-2.94a1 1 0 0 0-.784-.378zm1.686 1.538c.111-.53.867-.53.978 0l.244 1.162c.06.29.288.518.578.58l1.176.251c.527.113.527.865 0 .978l-1.176.25a.75.75 0 0 0-.578.58L8.49 9.767c-.11.53-.867.53-.978 0l-.244-1.163a.75.75 0 0 0-.577-.58l-1.176-.25c-.528-.113-.528-.865 0-.978l1.176-.25a.75.75 0 0 0 .577-.58z"/></svg>
